X:15
T:Grano’s March.2voices. JClw.15
M:4/4
L:1/8
Q:1/4=160
S:J.Clews MS,Stoke-upon-Tern,Shrops.1832
A:N. Shropshire
Z:Neil Brookes 2006
K:D
[V:1]|:f4Te4|d>dd>d d2A2|a4Tg4|f>ff>f f2d2|
[V:2]|:z6A2|A>AA>A F2e2|f4e4|d>dd>d d2A2|
%
[V:1] f>ff>a e>ee>a|d>dd>f e2A2|(3ded (3efe (3fgf (3gag|
[V:2] d>dd>d c>cc>c|d>BA>d c2A2|(3BcB (3cdc (3ded (3efe|
%
[V:1] (3aba (3gag (3fgf (3efe|d>dd>d d4::(3fgf (3fgf (3efe (3efe|
[V:2] (3fgf (3efe (3ded (3cdc|A>AA>A F4::(3ded (3ded (3cdc (3cdc|
%
[V:1] (3gag (3gag f4|f>ff>a e>ee>a|d>d de/f/ e2A2|(3fgf (3fgf (3efe (3efe|
[V:2] (3efe (3efe d4|d>dd>d c>cc>c|A>A Bc/d/ A2F2|(3ded (3ded (3cdc (3cdc|
%
[V:1] (3gag (3gag f4|a8|a8|(3aba (3gag (3fgf (3efe|d>dd>d d4:|
[V:2] (3efe (3efe d4|f2d2A2F2|F2A2d2f2|(3fgf (3efe (3ded (3cdc|A>AA>A F4:|

